X:1
T:Title
%%score { ( 1 4 ) | ( 2 3 ) }
L:1/8
M:4/4
K:Ab
V:1 treble nm="Grand Piano"
V:4 treble 
V:2 bass 
V:3 bass 
V:1
 z4 z2[Q:1/4=104] [CA]2 | [Ec]2 [Ec]2 [Fd][Ec][DB]A | F2 F2 BA[EG]F | [A,CE]2 [CEA]2 [Ec]2 [EA]2 | %4
[M:3/4] c2 B2 B2 |[M:1/4] A2 |[M:4/4] c2 c2 dc[DB]A | F2 F2 BA[EG]F | %8
 [A,CE]2 [CEA]2 [EAc]2 [CEA]2 |[M:3/4] [EAc]2 [DGB]2 [CA]2 |[M:1/4] [EAc]2 |[M:4/4] [Ae]6 z2 | %12
 [EA]6 z2 | [A,DF]2 [A,DF]2 [DB][FA][EG]F |[M:3/4] [A,CE]2 [CEA]2 [Ec]2 |[M:1/4] [Ec]2 | %16
[M:4/4] [Ae]6 z2 | [EA]6 z2 | [A,DF]2 [Fd]2 c2 A2 |[M:3/4] cB AG [A,CA]2 |] %20
V:2
 z4 z2 [A,,E,]2 | [A,,A,]2 [A,,A,]2 [A,,A,]2 z C | [D,A,D]2 [D,A,D]2 DF z D | %3
 A,,2 A,,2 [A,,A,]2 [C,A,]2 |[M:3/4] [E,A,E]2 [E,G,E]2 [E,G,E]2 |[M:1/4][K:treble] [A,CE]2 | %6
[M:4/4] [A,E]2 [A,E]2 FE[K:bass] z C | [D,A,D]2 [D,A,D]2 [D,A,]-[D,A,F] z D | E,2 E,2 E,2 E,2 | %9
[M:3/4] E,2 E,2 A,,2 |[M:1/4] A,2 |[M:4/4] [A,C]2 A,2 A,2 [A,,A,]2 | A,,2 A,,2 A,,2 A,,2 | %13
 D,2 D,2 [D,A,]2 z D |[M:3/4] A,,2 A,,2 [A,,A,]2 |[M:1/4] [A,,A,]2 |[M:4/4] [A,C]2 A,2 A,2 A,2 | %17
 A,,2 A,,2 A,,2 A,,2 | D,2 [D,A,]2 [E,A,E]2 [E,CE]2 |[M:3/4] E[F,D] [G,C]B, A,,2 |] %20
V:3
 x8 | z4 z2 [A,,A,]2 | z4 [D,A,]2 [D,A,]2 | x8 |[M:3/4] x6 |[M:1/4][K:treble] x2 | %6
[M:4/4] z4 A,2[K:bass] A,2 | z4 .D2 [D,A,]2 | x8 |[M:3/4] x6 |[M:1/4] x2 |[M:4/4] x8 | x8 | %13
 z4 z2 [D,A,]2 |[M:3/4] x6 |[M:1/4] x2 |[M:4/4] x8 | x8 | x8 |[M:3/4] E,2 E,2 z2 |] %20
V:4
 x8 | x8 | x8 | x8 |[M:3/4] x6 |[M:1/4] x2 |[M:4/4] x8 | x8 | x8 |[M:3/4] x6 |[M:1/4] x2 | %11
[M:4/4] z2 C2 C2 [Ec]2 | C2 C2 C2 [A,CE]2 | x8 |[M:3/4] x6 |[M:1/4] x2 |[M:4/4] z2 C2 C2 [Ec]2 | %17
 A,2 A,2 A,2 [A,CE]2 | x8 |[M:3/4] x6 |] %20

